X:1
T:Title
%%score { 1 | ( 2 3 ) }
L:1/8
M:4/4
K:F
V:1 treble nm="Grand Piano"
V:2 bass 
V:3 bass 
V:1
 z4 z2[Q:1/4=108] [FA]2 | [Ac]2 [Ac]2 [GB]2 [FA]2 | [DA]3 [DG] [DG]2 [DA]2 | %3
 [DB]2 [B,DB]2 [FA]2 [EG]2 |[M:3/4] A6 |[M:1/4] C2 |[M:4/4] C2 F2 A2 c2 | [Dc]3 [DB] [DA]2 [^CG]2 | %8
 [CF]2 [FA]2 [EA]3 [B,EG] |[M:3/4] [A,F]6 |[M:1/4] [CEG]2 |[M:4/4] [CEG]2 [G,CE]2 [CEG]2 [CGc]2 | %12
 [Fc]3 [F=B] [FB]2 [FB]2 | d2 c2 =B2 A2 |[M:3/4] [FA]4 [EG]2 |[M:1/4] [EG]2 | %16
[M:4/4] [EG]2 [CE]2 [EG]2 [Gc]2 |[M:9/8] [Ad]3 [Ac] A2- A A2 |[M:4/4] G2 c2 e3 d |[M:3/4] [CEc]6 | %20
[M:1/4] z2 |[M:4/4] [Ec]2 [EB]2 [EG]2 d2 | d2 c2 A2 [Ac]2 | [Af]2 [CAc]2 [Ge]d[Ec]=B | %24
[M:3/4] [Ec]6 |[M:1/4] C2 |[M:4/4] C2 F2 A2 c2 | [Dc]3 [DB] [DA]2 [DG]2 | [CF]2 [FA]2 [EA]3 [EG] | %29
[M:3/4] F6 |] %30
V:2
 z4 z2 [F,C]2 | [F,C]2 [F,C]2 [E,C]2 [F,C]2 | [B,,B,]3 [B,,B,] [B,,B,]2 [A,,^F,]2 | %3
 [G,,G,]2 G,,2 [C,C]2 [C,C]2 |[M:3/4] [F,CF]6 |[M:1/4] [F,A,]2 | %6
[M:4/4] [F,A,]2 [F,A,C]2 [F,CF]2 [F,A,_E]2 | [B,,B,]3 [B,,B,] [B,,B,]2 [B,,B,]2 | %8
 [C,A,]2 [C,C]2 [C,C]3 C, |[M:3/4] F,6 |[M:1/4] C,2 |[M:4/4] C,2 C,2 C,2 E,2 | %12
 [D,G,]3 [D,G,] [D,G,]2 [D,G,]2 | [G,=B,F]2 [G,DF]2 [G,DF]2 [G,B,F]2 |[M:3/4][K:bass] [C,C]6 | %15
[M:1/4] [C,C]2 |[M:4/4] [C,C]2 [C,G,]2 [C,C]2 [E,C]2 | %17
[M:9/8] [F,C]3 [F,C][K:treble] [F,CF]2- [F,CF] [F,CF]2 |[M:4/4] [G,CE]2 [G,CE]2 [G,CG]3 [G,=B,F] | %19
[M:3/4][K:bass] C,6 |[M:1/4] c2 |[M:4/4] [C,G,]2 [C,C]2 [C,C]2 z2 | %22
 [F,B,F]2 [F,A,F]2 [F,CF]2 [F,C]2 | [F,C]2 F,2 z[K:treble] F z D |[M:3/4][K:bass] [C,G,]6 | %25
[M:1/4] [F,A,]2 |[M:4/4] [F,A,]2 [F,A,C]2 [F,CF]2 [F,A,_E]2 | [B,,B,]3 [B,,B,] [B,,B,]2 [B,,B,]2 | %28
 [C,A,]2 [C,C]2 [C,C]3 [C,B,] |[M:3/4] [F,A,]6 |] %30
V:3
 x8 | x8 | x8 | x8 |[M:3/4] x6 |[M:1/4] x2 |[M:4/4] x8 | x8 | x8 |[M:3/4] x6 |[M:1/4] x2 | %11
[M:4/4] x8 | x8 | x8 |[M:3/4][K:bass] x6 |[M:1/4] x2 |[M:4/4] x8 |[M:9/8] x4[K:treble] x5 | %18
[M:4/4] x8 |[M:3/4][K:bass] x6 |[M:1/4] x2 |[M:4/4] x8 | x8 | z4 G,2[K:treble] G,2 | %24
[M:3/4][K:bass] x6 |[M:1/4] x2 |[M:4/4] x8 | x8 | x8 |[M:3/4] x6 |] %30

